X: 20021
T: KENMURE'S ON & AWA
Q: "Slow"
%R: jig, air
B: "Edinburgh Repository of Music" v.2 p.2 #1
F: http://digital.nls.uk/special-collections-of-printed-music/pageturner.cfm?id=87776133
Z: 2015 John Chambers <jc:trillian.mit.edu>
M: 6/8
L: 1/8
K: G
D |\
(G>B)d gdB | d2d d2B | (G>B)d gdB | A2A A2B |\
(GB).d (gd).B | e>fg (gf).e | (d>c).B (cB).A | G2G G2 :|
|: d |\
g2d (ed).B | d2d d2d | g2d (ed).B | A2A A2d |\
g2d (ed).B | (d>e).f (g>f).e | (d>c).B (cB).A | G2G G2 :|

%%sep 2 1 500
%%sep 1 1 500

